X: 21299
T: Kemo's
R: jig
M: 6/8
K: Amajor
|:c'3 baf|fef afe|cef afe|cBA B3|
c'3 baf|fef afe|cef afe|cBA F3:|
|:AFE cEF|EFA B3|ABc ec/B/A|Ace f3|
efa c'ab|fae fec|ABc afe|cBA F3:|

